dist/img/conditions/conditions_13.svg

<svg width="44" height="44" viewBox="0 0 44 44" fill="none" xmlns="http://www.w3.org/2000/svg">
<path d="M25.667 29.3333C25.667 32.5783 24.2553 35.5116 22.0003 37.5099C20.057 39.2699 17.4903 40.3333 14.667 40.3333C8.59866 40.3333 3.66699 35.4016 3.66699 29.3333C3.66699 24.2733 7.11366 19.9833 11.7703 18.7183C13.0353 21.9083 15.7487 24.3649 19.1037 25.2816C20.0203 25.5383 20.992 25.6666 22.0003 25.6666C23.0087 25.6666 23.9803 25.5383 24.897 25.2816C25.392 26.5283 25.667 27.9033 25.667 29.3333Z" stroke="url(#paint0_linear_439_3140)" stroke-width="2" stroke-linecap="round" stroke-linejoin="round"/>
<path d="M33 14.6666C33 16.0966 32.725 17.4716 32.23 18.7183C30.965 21.9083 28.2517 24.365 24.8967 25.2816C23.98 25.5383 23.0083 25.6666 22 25.6666C20.9917 25.6666 20.02 25.5383 19.1033 25.2816C15.7483 24.365 13.035 21.9083 11.77 18.7183C11.275 17.4716 11 16.0966 11 14.6666C11 8.59829 15.9317 3.66663 22 3.66663C28.0683 3.66663 33 8.59829 33 14.6666Z" stroke="url(#paint1_linear_439_3140)" stroke-width="2" stroke-linecap="round" stroke-linejoin="round"/>
<path d="M40.3333 29.3333C40.3333 35.4016 35.4017 40.3333 29.3333 40.3333C26.51 40.3333 23.9433 39.2699 22 37.5099C24.255 35.5116 25.6667 32.5783 25.6667 29.3333C25.6667 27.9033 25.3917 26.5283 24.8967 25.2816C28.2517 24.3649 30.965 21.9083 32.23 18.7183C36.8867 19.9833 40.3333 24.2733 40.3333 29.3333Z" stroke="url(#paint2_linear_439_3140)" stroke-width="2" stroke-linecap="round" stroke-linejoin="round"/>
<defs>
<linearGradient id="paint0_linear_439_3140" x1="3.66699" y1="29.5258" x2="25.667" y2="29.5258" gradientUnits="userSpaceOnUse">
<stop stop-color="#B68C74"/>
<stop offset="1" stop-color="#865F46"/>
</linearGradient>
<linearGradient id="paint1_linear_439_3140" x1="11" y1="14.6666" x2="33" y2="14.6666" gradientUnits="userSpaceOnUse">
<stop stop-color="#B68C74"/>
<stop offset="1" stop-color="#865F46"/>
</linearGradient>
<linearGradient id="paint2_linear_439_3140" x1="22" y1="29.5258" x2="40.3333" y2="29.5258" gradientUnits="userSpaceOnUse">
<stop stop-color="#B68C74"/>
<stop offset="1" stop-color="#865F46"/>
</linearGradient>
</defs>
</svg>

<svg width="44" height="44" viewBox="0 0 44 44" fill="none" xmlns="http://www.w3.org/2000/svg"><path d="M25.667 29.333c0 3.245-1.412 6.179-3.667 8.177a10.873 10.873 0 01-7.333 2.823c-6.068 0-11-4.931-11-11 0-5.06 3.447-9.35 8.103-10.615a11.035 11.035 0 007.334 6.564c.916.256 1.888.385 2.896.385 1.009 0 1.98-.129 2.897-.385a10.98 10.98 0 01.77 4.051z" stroke="url(#paint0_linear_439_3140)" stroke-width="2" stroke-linecap="round" stroke-linejoin="round"/><path d="M33 14.667c0 1.43-.275 2.805-.77 4.051a11.034 11.034 0 01-7.333 6.564 10.76 10.76 0 01-2.897.385 10.76 10.76 0 01-2.897-.385 11.034 11.034 0 01-7.333-6.564 10.987 10.987 0 01-.77-4.051c0-6.069 4.932-11 11-11s11 4.931 11 11z" stroke="url(#paint1_linear_439_3140)" stroke-width="2" stroke-linecap="round" stroke-linejoin="round"/><path d="M40.333 29.333c0 6.069-4.931 11-11 11-2.823 0-5.39-1.063-7.333-2.823a10.903 10.903 0 003.667-8.177c0-1.43-.275-2.805-.77-4.051a11.035 11.035 0 007.333-6.564c4.657 1.265 8.103 5.555 8.103 10.615z" stroke="url(#paint2_linear_439_3140)" stroke-width="2" stroke-linecap="round" stroke-linejoin="round"/><defs><linearGradient id="paint0_linear_439_3140" x1="3.667" y1="29.526" x2="25.667" y2="29.526" gradientUnits="userSpaceOnUse"><stop stop-color="#B68C74"/><stop offset="1" stop-color="#865F46"/></linearGradient><linearGradient id="paint1_linear_439_3140" x1="11" y1="14.667" x2="33" y2="14.667" gradientUnits="userSpaceOnUse"><stop stop-color="#B68C74"/><stop offset="1" stop-color="#865F46"/></linearGradient><linearGradient id="paint2_linear_439_3140" x1="22" y1="29.526" x2="40.333" y2="29.526" gradientUnits="userSpaceOnUse"><stop stop-color="#B68C74"/><stop offset="1" stop-color="#865F46"/></linearGradient></defs></svg>
